X:1
T:Chiacona
T:Chiacona
T:Chiacona
T:Op. 2 No. 12  for 2 Violins and Basso adapted for 2 Flutes and Cello 
T:Antonio Caldara (c. 1671-1736 arr. Felix Scharpf) 
T:twoflutes 2020 / Felix Scharpf / https://commons.wikimedia.org/wiki/File:Antonio_Caldara_(I-Bc,_B_11881,_B_39202).jpg
T:twoflutes 2020 / Felix Scharpf / https://commons.wikimedia.org/wiki/File:Antonio_Caldara_(I-Bc,_B_11881,_B_39202).jpg
T:twoflutes 2020 / Felix Scharpf / https://commons.wikimedia.org/wiki/File:Antonio_Caldara_(I-Bc,_B_11881,_B_39202).jpg
T:twoflutes 2020 / Felix Scharpf / https://commons.wikimedia.org/wiki/File:Antonio_Caldara_(I-Bc,_B_11881,_B_39202).jpg
T:twoflutes 2020 / Felix Scharpf / https://commons.wikimedia.org/wiki/File:Antonio_Caldara_(I-Bc,_B_11881,_B_39202).jpg
T:twoflutes 2020 / Felix Scharpf / https://commons.wikimedia.org/wiki/File:Antonio_Caldara_(I-Bc,_B_11881,_B_39202).jpg
T:twoflutes 2020 / Felix Scharpf / https://commons.wikimedia.org/wiki/File:Antonio_Caldara_(I-Bc,_B_11881,_B_39202).jpg
T:twoflutes 2020 / Felix Scharpf / https://commons.wikimedia.org/wiki/File:Antonio_Caldara_(I-Bc,_B_11881,_B_39202).jpg
T:twoflutes 2020 / Felix Scharpf / https://commons.wikimedia.org/wiki/File:Antonio_Caldara_(I-Bc,_B_11881,_B_39202).jpg
T:twoflutes 2020 / Felix Scharpf / https://commons.wikimedia.org/wiki/File:Antonio_Caldara_(I-Bc,_B_11881,_B_39202).jpg
C:Antonio Caldara (1671-1736)
Z:twoflutes 2020 / Felix Scharpf / https://commons.wikimedia.org/wiki/File:Antonio_Caldara_(I-Bc,_B_11881,_B_39202).jpg
%%score [ 1 2 3 ]
L:1/8
Q:1/4=126
M:3/4
K:Bb
V:1 treble nm="Flute" snm="Fl."
V:2 treble nm="Flute" snm="Fl."
V:3 bass nm="Violoncello" snm="Vc."
V:1
!mf! f2 d2 .c.B | f4 e2 | .d.e f3 .f | .e.d c4 | B4 z2 | z .b.a.g .a(g/f/) | b6- | %7
 b/(a/b/c'/) a3 .b | b2!>(! (f>g) (f>g) | f2!>)!!mp! (a>b) (a>b) | g2 (b>c') (b>c') | %11
 .b(e/d/)!<(! (Tc3 B/c/) | B2!<)! z2 z2 | z2!mf! (ag)(ab) | g3 .f.g.a | b4 a2- | a2 g3 .g | %17
 f2 (ag) !wedge!a2 | z2!p! (gf) !wedge!g2 | z2!mf! (f=e) f2- | f2 =e4 | %21
 .f/(f/=e/d/) (c/B/)A/G/ .F.f | .f(=e/d/) e2 z2 | z/ (f/=e/d/ c/B/A/G/) .F.f | f2 (ed) e2- | %25
 e2 (dc) d2 |!f! !wedge!b2 !wedge!a2 z2 |!mf! !wedge!g2 !wedge!f2 z2 | (ed) c3 .f | %29
"_cresc." .d.f.b.f.d.B | f2 z2 z2 | z .b.f.d.F.f | g2 f2 e2- | e(f/e/) (d/c/B/c/) d2- | %34
 d(e/d/) (c/B/A/B/) (c2 | c)(d/c/) (B/A/G/A/) B2- | B(c/B/) (A/G/^F/G/) A2- | %37
 A(B/A/) (G/^F/)(G/F/) G2- | G/(^F/G/A/) (TF3 =E/F/) | G4 (g2 | g2) .^f.A.d.c | c2 B3 .B | A6 | %43
 G2 z2 z2 | z/ (a/g/a/) .f/(a/g/a/) (f/g/)(=e/f/) | d2 z/ (a/g/f/) =e2 | %46
 z/ (d/c/d/) A2 z/ (d/c/d/) | =E2 z/ (a/g/a/) =e2 | z/ (a/g/a/) .f/(a/g/a/) (f/g/)(=e/f/) | d6- | %50
 d6- | d2 d3 .^c | d2 (f=e)(fg) | !wedge!f2 !wedge!^f2 z (f | g2) d'4- | d'2 c'3 .c' | %56
 c'2 (ba) b2- | b2 (=bc')(ab) | c'2 (g4 | g2) f3 f | f2 (ed) e2- | e.f(dcdg) | e3 .g.f.e | %63
 d2 (Td3 c/d/) | c2 z2 z g | (!>!_a2 g2) z g | (!>!f2 e2) z e |!>(! (_dc) =B3!>)! .g | %68
 .e.c.G.E c2 | z .c.=B.G G2 | z .c.G.E.c.g | (fe) d3 d | =e2 (fe) f2- | f2 f3 (=e | .f).f.c._A F2 | %75
 z .f.=e.c C2 | z .f.c._A.F.c | (B_A) G3 .c | .=A(B/c/) .B/(b/a/g/) (f/e/)(d/f/) | %79
 (g/f/)e/d/ (Tc3 B/c/) | .B/(B/d/f/) B2 z/!f! (B/d/f/) | B2 z/ (A/c/f/) A2 | %82
 z/ (d/g/b/) f2 z/ (d/f/b/) | c2 z/ (c/f/a/) c2 | z/ (B/d/f/) B2 z/!>(! (B/d/f/)!>)! | %85
!mp! (B/d/).f/.b/ (A/c/).f/.a/ (A/c/).f/.a/ | (B/d/).g/.b/ (B/d/).f/.b/ (B/d/).f/.b/ | %87
 (c/e/).g/.b/ (c/f/).b/.f/!<(! (.c/.b/).c/.a/!<)! |!mf! .B.f.d.c d2 | z .d.c.B c2 | z .g.f.e f2 | %91
 z .e.c!<(!.B.c.f!<)! |!f! .d/(f/b/f/) .d.B z/ (f/b/f/) | .d.B z/ (c/f/c/) .A.F | %94
 z/ (g/b/g/) .f.d z/ (f/d/B/) | .g.G z/!>(! f/c/A/ .F.A!>)! |!mp! d4 z!mf! f | (!>!g2 f2) z f | %98
 (!>!e2 d2) z f | (ed) (Tc3 B/c/) | B2 z2!<(! b2-!<)! | b2 (_ag)(ab) | g(b/_a/) (b/a/)(b/a/) b2- | %103
 b2 (_a/g/)(f/g/) a2- | a(b/_a/) (g/f/)(e/f/) .g(a/g/) | .g(f/e/) .f.f(gf) | %106
 (e/d/c/d/) (e/d/)(e/d/) e2- | e2 _d3 d | _d2 (c=B) c2- | c/(=B/c/d/) (TB3 A/B/) | c2!>(! (g4!>)! | %111
 g3) _a (g/f/e/d/) | c3!mf! (g/f/ e/d/c/B/) | (_A/G/F/E/) .D.g .=B(g/f/) | e3 d c2 | %115
 (!>!e2 d2) z2 | (!>!f2 e2) z2 | z2 z2 d2- | dG c3 d | e2 =e3 e | .f.c.e.d.c.B | _A2 (G>A) (G>F) | %122
 =E2"_cresc." .F.G.A.B | .c.d.=e.f.g.a | b4 a2- | a>g (Tg3 f/g/) | f2 z2 z2 | %127
 z/ a/.g/.f/ .=e.d.e.c | f4 z2 | z/ .a/.g/.f/!>(! .=e.d.e.c!>)! |!mp! a2 (ag)(ab) | a2 (gf)(ga) | %132
 f2 =e3 f | .d(=e/f/) f3 e |!f! (f/g/f/)e/ (d/c/B/)c/ (d/c/d/)B/ | f2 z2 z2 | %136
 z/ (b/a/g/) (f/e/d/)e/ (f/e/f/)d/ | g4!>(! .f>e!>)! | .d!p!b"_cresc.".bb.bb | %139
 b(a/g/) .aa .a(b/a/) | .g(a/g/) .ff .f(g/f/) | (e/f/)(d/e/)!<(! c4!<)! |!f! .B.F.D.F B2 | %143
 z (.d/.e/) f2 z (.f/.a/) | b2 z (.d/.e/) f2 | z (.e/.d/) c2 z (.f/.e/) | .d/(b/a/g/ f/e/d/c/) B2 | %147
 z/ (f/e/d/ c/B/A/G/) F2 | z/ (b/a/g/ f/e/d/c/) .B.d | .c.B B3 A | B2 z2 z .b | .b.g a2 z f | %152
 (e2 d2) z .f | .e.d (Tc3 B/c/) |!<(! .B/(f/g/a/) .b/(f/d/f/) B2!<)! | %155
!f! !wedge!d'2 !wedge!c'2 z2 | !wedge!b2 !wedge!a2 z2 | g2 .f3 e | (dcde) d2 | (fgag) .a(g/f/) | %160
!>(! b6- | b/(a/b/c'/) a3!>)! .b |!mp! b2!f!!>(! (dc)(d.D) | z2 (cB)(c.C) | z2 (dc)(d.D) | %165
 (ed) (Tc3 B/c/)!>)! |!p! .B!f!"_dim.".b.a.g.f.e | d3 .e.d.c | (BABc) B2- | %169
 B/(A/B/c/)[Q:1/4=80] (A3 B) |!mp! !fermata!B6 |] %171
V:2
 z6 |!mf! B2 A2 .G.F | B6- | B2 B3 A | .B.f.d.c .d(c/B/) | f2 f3 e | d3 .e.f.B | g2 c3 .B | %8
 B2!>(! (d>e) (d>e) | d2!>)!!mp! (c>d) (c>d) | B2 (d>e) (d>e) | .d(c/B/)!<(! A3 A | %12
 B2!<)!!mf! (dc)(de) | c3 B(cd) | B2 .c.d =e2 | f2 c2 f2- | f2 f3 .=e | f2 (f=e) !wedge!f2 | %18
 z2!p! (=ed) !wedge!e2 | z2!mf! (cB) (Ac) | (dG) (TG3 F/G/) | F2 z2 z2 | %22
 z/ (c/B/A/) (G/F/=E/D/) .C.c | .A.G A2 z/ (c/B/A/) | (d/c/B/A/) G3 .c | A2 (BA) B2 | %26
!f! !wedge!d2 !wedge!c2 z2 |!mf! !wedge!B2 !wedge!A2 z2 | (GB) B3 .A | B2 z2 z2 | %30
 z"_cresc." .d.f.c.A.F | B2 z2 z2 | z .e.c.A.C.A |!>(! B2 F2!>)!!mp! .b>b | b2 a3 .a | a2 g3 .g | %36
!<(! g2 .^f!<)!!mf!.A.d.c | c2 B3 .B | A2 d2 c2- | c!f!(d/c/) (B/A/)G/A/ (B2 | %40
 B)(c/B/) (A/G/^F/)G/ A2- | A(B/A/) (G/^F/G/F/) G2- | G/(^F/G/A/) (TF3 =E/F/) | %43
 .G/(g/f/g/) .d/(g/f/g/) (=e/f/)(d/e/) | ^c2 z2 z2 | z/ (f/=e/d/) ^c2 z/ (a/g/a/) | %46
 f2 z/ (d/c/d/) F2 | z/ (=e/d/e/) ^c2 z/ (a/g/a/) | f2 z2 z2 | %49
 z/ (a/g/a/) (f/g/)(=e/f/) (d/e/)(c/d/) | .B/(b/a/g/) (a/b/)(g/a/) (f/g/)(=e/f/) | (d/=e/f/g/) e4 | %52
 d2 (d^c) (d>=e) | !wedge!d2 !wedge!c2 z (c | B2) z2 d2 | =e3 .e.a.g | ^f2 (gf) g2 | (.d>=e) f4 | %58
 _e2 (dc)(de) | (cB) A2 (dc) | =B2 (cB) c2- | c.d(=BA) B2 | c2 G2 c2- | c2 (=B4 | .c)!f!.c.G.E c2 | %65
 z .c.=B.G G2 | z .c.G.E c2 | z .f.d.=B g2 | z2 z2 z b | (!>!_a2 g2) z g | (!>!f2 e2) z e | %71
!>(! (_dc) (T=B3 A/B/) | c3!>)! .c.B._A | (_d/c/B/_A/) G3 G | F2 z2 z c | (!>!_d2 c2) z c | %76
 (!>!B2 _A2) z A | (_GF) =E4 | F4 B2- | B2 B3 A | B2 z/!f! (d/c/B/) .f.f | %81
 z/ (d/c/B/) .c.c z/ (c/B/A/) | .B.B z/ (A/G/F/) .B.B | z/ (G/B/e/) .A.A z/ (c/B/A/) | %84
 .d.d z/ (B/d/f/) B2 | z!f! .d!<(!.c.B c2!<)! | z .g.f.e f2 | z .e.c.B!>(! .c>f!>)! | %88
!mp! .d/(B/d/f/) .b/(B/d/f/) .b/(B/d/f/) | (B/d/).f/.b/ (A/c/.f/).a/ (A/c/.f/).a/ | %90
 (B/d/).g/.b/ (B/d/).f/.b/ (B/d/).f/.b/ | (c/e/).g/.b/ (c/f/).b/.f/!>(! (c/.b/).c/.a/!>)! | %92
 B2 z!mf! .f .f2 | z .f .f2 z .f | .d2 z .f .f2 | z .e(cF) c2- | c2 (BA) B2 | z!mf! B (!>!d2 c2) | %98
 z G (!>!B2 _A2) | (GB) B3 A |!<(! .B.F.D.F B2!<)! | d2 (Td3 c/d/) | e2 f2 .e.d | c3 c .f.e | %104
 Td2 .d>B .e(f/e/) | .e(d/c/) .d.d(ed) | c2 B3 .B | (_AG) F3 F | G3 .g.f.e | d2 d3 (c/d/) | %110
 e3 d c2 | (!>!e2 d2) z2 | (!>!f2 e2) z2 | z6 | z2!mp!!>(! g4-!>)! | g3 _a (g/f/e/d/) | %116
 c3!mf! (g/f/ e/d/c/B/) | (_A/G/)(F/E/) .D.g .=B(g/f/) | e3 c g2- | g_a(ba)(bc') | _a2 .g.f.e.d | %121
 .c>d B3 B | (B2 A2) .F.G |"_cresc." .A.B.c.d =e2 | f2 c'4 | .f2 f3 (=e | %126
 .f/)!f!.d/.c/.B/ .A.G.A.F | c4 z2 | z/ .d/.c/.B/ .A.G.A.F | d2 z2!mp! g2- | g2 f=e(fg) | %131
 f2 (=ed)(ef) | d4 c2 | .B.A G3 (c/B/) | F2 z2 z2 | z/!f! (d/c/B/) (A/G/F/G/) (A/G/)(A/F/) | %136
 B2 z2 z2 | z/ (e/d/e/) (c/B/)(A/B/)!>(! (c/B/)(c/A/)!>)! | .B!p!d"_cresc.".dd.dd | %139
 d(c/B/) .cc .c(d/c/) | .B(c/B/) .AA .A(B/A/) | .G.B!<(! B3 A!<)! | B2 z2 z (.d/!f!.e/) | %143
 f2 z (.f/.g/) a2 | z (.d/.e/) f2 z (.d/.c/) | B2 z (.A/.G/) F2 | z2 z2 z .b | .b.g a2 z f | %148
 (e2 d2) z .f | .e.d Tc3 (B/c/) |!p! .B/"_cresc."(b/a/g/ f/e/d/c/) B2 | z/ (f/e/d/ c/B/A/G/) F2 | %152
 z/ (b/a/g/ f/e/d/c/) .B.d | .c.B B3 .A | B4 z/!<(! (f/g/a/)!<)! |!f! !wedge!b2 !wedge!a2 z2 | %156
 !wedge!g2 !wedge!f2 z2 | .e.d.c.B A2 | (BABc) B2 | z6 |!>(! (defe) .f(e/d/) | .g>c c3!>)! .B | %162
!mp! B2!f!!>(! (BA)B.B | z2 (AG)A.A | z2 (BA)B.B | B2 B3 A!>)! |!p! B2 z2 z2 | %167
 z!f!"_dim." .b.a.g.f.e | (dcde) d2 | c2 (Tc3 .B/.c/) |!mp! !fermata!B6 |] %171
V:3
!f! .B,,2 !tenuto!B,3 B, | .B,2 !tenuto!F,3 F, | .G,2 !tenuto!D,3 D, | .E,2 !tenuto!F,3 F, | %4
 .B,,2 !tenuto!B,3 B, | .B,2 !tenuto!F,3 F, | .G,2 !tenuto!D,3 D, | .E,2 !tenuto!F,3 F, | %8
 .B,,2 !tenuto!B,3 B, | .B,2 !tenuto!F,3 F, | .G,2 !tenuto!D,3 D, | .E,2 !tenuto!F,3 F, | %12
 .B,,2 !tenuto!B,3 B, | .B,2 !tenuto!F,3 F, | .F,2 !tenuto!C,3 C, | .D,2 !tenuto!A,,3 A,, | %16
 .B,,2 !tenuto!C,3 C, | .F,,2 !tenuto!F,3 F, | .F,2 !tenuto!C,3 C, | .D,2 !tenuto!A,,3 A,, | %20
 .B,,2 !tenuto!C,3 C, | .F,,2 !tenuto!F,3 F, | .F,2 !tenuto!C,3 C, | .D,2 !tenuto!A,,3 A,, | %24
 .B,,2 !tenuto!C,3 C, | .F,,2 !tenuto!B,3 B, | .B,2 !tenuto!F,3 F, | .G,2 !tenuto!D,3 D, | %28
 .E,2 !tenuto!F,3 F, | .B,,2 !tenuto!B,3 B, | .B,2 !tenuto!F,3 F, | .G,2 !tenuto!D,3 D, | %32
 .E,2 !tenuto!F,3 F, | .B,,2 !tenuto!B,3 B, | .B,2 !tenuto!^F,3 F, | .G,2 !tenuto!G,3 G, | %36
 .G,2 !tenuto!D,3 D, | .E,2 !tenuto!B,,3 B,, | .C,2 !tenuto!D,3 D, | .G,,2 !tenuto!G,3 G, | %40
 .G,2 !tenuto!D,3 D, | .E,2 !tenuto!B,,3 B,, | .C,2 !tenuto!D,3 D, | .G,,2 !tenuto!G,3 G, | %44
!f! .G,2 !tenuto!D,3 D, | .D,2 !tenuto!A,,3 A,, | .B,,2 !tenuto!F,,3 F,, | .G,,2 !tenuto!A,,3 A,, | %48
 .D,,2 !tenuto!D,3 D, | .D,2 !tenuto!A,,3 A,, | .B,,2 !tenuto!F,,3 F,, | .G,,2 !tenuto!A,,3 A,, | %52
 .D,2 !tenuto!D3 D | .D2 !tenuto!A,3 A, | .B,2 !tenuto!F,3 F, | .G,2 !tenuto!A,3 A, | %56
 .D,2 !tenuto!G,3 G, | .G,2 !tenuto!D,3 D, | .E,2 !tenuto!B,,3 B,, | .C,2 !tenuto!D,3 D, | %60
 .G,,2 !tenuto!C3 C | .C2 !tenuto!G,3 G, | ._A,2 !tenuto!E,3 E, | .F,2 !tenuto!G,3 G, | %64
 .C,2 !tenuto!C3 C | .C2 !tenuto!G,3 G, | ._A,2 !tenuto!E,3 E, | .F,2 !tenuto!G,3 G, | %68
 .C,2 !tenuto!C3 C | .C2 !tenuto!G,3 G, | ._A,2 !tenuto!E,3 E, | .F,2 !tenuto!G,3 G, | %72
 .C,2 !tenuto!_A,,3 A,, | .B,,2 !tenuto!C,3 C, | .F,,2 !tenuto!F,3 F, | .F,2 !tenuto!C,3 C, | %76
 ._D,2 !tenuto!_A,,3 A,, | .B,,2 !tenuto!C,3 C, | .F,2 !tenuto!D,3 D, | .E,2 !tenuto!F,3 F, | %80
 .B,,2 !tenuto!B,3 B, | .B,2 !tenuto!F,3 F, | .G,2 !tenuto!D,3 D, | .E,2 !tenuto!F,3 F, | %84
 .B,,2 !tenuto!B,3 B, | .B,2 !tenuto!F,3 F, | .G,2 !tenuto!D,3 D, | .E,2 !tenuto!F,3 F, | %88
 .B,,2 !tenuto!B,3 B, | .B,2 !tenuto!F,3 F, | .G,2 !tenuto!D,3 D, | .E,2 !tenuto!F,3 F, | %92
 .B,,2 !tenuto!B,3 B, | .B,2 !tenuto!F,3 F, | .G,2 !tenuto!D,3 D, | .E,2 !tenuto!F,3 F, | %96
 .B,,2 !tenuto!B,3 B, | .B,2 !tenuto!F,3 F, | .G,2 !tenuto!D,3 D, | .E,2 !tenuto!F,3 F, | %100
 .B,,2 !tenuto!B,3 B, | .B,2 !tenuto!F,3 F, | .G,2 !tenuto!D,3 D, | .E,2 !tenuto!F,3 F, | %104
 .B,,2 !tenuto!E,3 E, | .E,2 !tenuto!B,,3 B,, | .C,2 !tenuto!G,,3 G,, | ._A,,2 !tenuto!B,,3 B,, | %108
 .E,,2 !tenuto!E,3 E, | .F,2 !tenuto!G,3 G, | .C,2 !tenuto!C3 C | .C2 !tenuto!G,3 G, | %112
 ._A,2 !tenuto!E,3 E, | .F,2 !tenuto!G,3 G, | .C,2 !tenuto!C3 C | .C2 !tenuto!G,3 G, | %116
 ._A,2 !tenuto!E,3 E, | .F,2 !tenuto!G,3 G, | .C,2 !tenuto!C3 C | .C2 !tenuto!G,3 G, | %120
 ._A,2 !tenuto!E,3 E, | .F,2 !tenuto!G,3 G, | .C,2 !tenuto!F,3 F, | .F,2 !tenuto!C,3 C, | %124
 .D,2 !tenuto!A,,3 A,, | .B,,2 !tenuto!C,3 C, | .F,,2 !tenuto!F,3 F, | .F,2 !tenuto!C,3 C, | %128
 .D,2 !tenuto!A,,3 A,, | .B,,2 !tenuto!C,3 C, | .F,,2 !tenuto!F,3 F, | .F,2 !tenuto!C,3 C, | %132
 .D,2 !tenuto!A,,3 A,, | .B,,2 !tenuto!C,3 C, | .F,2 !tenuto!B,3 B, | .B,2 !tenuto!F,3 F, | %136
 .G,2 !tenuto!D,3 D, | .E,2 !tenuto!F,3 F, | .B,,2 !tenuto!B,3 B, | .B,2 !tenuto!F,3 F, | %140
 .G,2 !tenuto!D,3 D, | .E,2 !tenuto!F,3 F, | .B,,2 !tenuto!B,3 B, | .B,2 !tenuto!F,3 F, | %144
 .G,2 !tenuto!D,3 D, | .E,2 !tenuto!F,3 F, | .B,,2 !tenuto!B,3 B, | .B,2 !tenuto!F,3 F, | %148
 .G,2 !tenuto!D,3 D, | .E,2 !tenuto!F,3 F, | .B,,2 !tenuto!B,3 B, | .B,2 !tenuto!F,3 F, | %152
 .G,2 !tenuto!D,3 D, | .E,2 !tenuto!F,3 F, | .B,,2 !tenuto!B,3 B, | .B,2 !tenuto!F,3 F, | %156
 .G,2 !tenuto!D,3 D, | .E,2 !tenuto!F,3 F, | .B,,2 !tenuto!B,3 B, | .B,2 !tenuto!F,3 F, | %160
 .G,2 !tenuto!D,3 D, | .E,2 !tenuto!F,3 F, | .B,,2 !tenuto!B,3 B, | .B,2 !tenuto!F,3 F, | %164
 .G,2 !tenuto!D,3 D, | .E,2 !tenuto!F,3 F, | .B,,2 !tenuto!B,3 B, | .B,2 !tenuto!F,3 F, | %168
 .G,2 !tenuto!D,3 D, | .E,2 !tenuto!F,3 F, |!mp! !fermata!B,,6 |] %171

